X: 12614
T: Farewell To Whalley Range
R: slip jig
M: 9/8
K: Amajor
|:F2 c BAF F2 E|F2 c BAc fec|B3 BAB c2 A|1 B3 BAB cBA:|2 B3 BAB cef||
|:a3 fec fec|B3 BAB cef|a3 baf afe|1 fec Bce fec:|2 fec fec BAB||

